X: 1920
T: Ted Harrison's Polka Mazurka
B: australian traditional tunes wiki
M:3/4
L:1/8
R: Polka Mazurka
Q: 1/4=100
K:G
V:1 
(3ded|"G"B>G B>G e>d|"Am"c>A c>A f>g|"D7"f>e f>e f>e|"G"d>Bd2(3ded|
"G"B>G B>G e>d|"Am"c>A c>A f>g|"D7"f>e f>e b>a|"G"g>dg2 "D7"d>g|
"G"b>g b>g c'>b|"Am"a>f a>f d>f|"D7"a>f a>f b>a|"G"g>d g>d d>g|
"G"b>g b>g c'>b|"Am"a>f a>f d>f|"D7"a>f a>f b>a|"G"g>dg3||
% abcbook-tune_id 6342d5be4f04c282b39f0b34


% abcbook-boost 0
% abcbook-tablature 
% abcbook-transpose 
% abcbook-lastupdated 1665324487941
% abcbook-soundfonts 
% abcbook-repeats 1
% NFF Book 2016

